X: 24236
T: Lord Of Ballinaleck, The
R: reel
M: 4/4
K: Adorian
|ed||cA ~A2 cAeA|cA ~A2 cede|cA ~A2 cBce|gGGA Bcde|
cA ~A2 cAeA|cA ~A2 cede|cBce g=feg|ec (3ABc d2||
BG||EAAG ABcd|ec ~c2 EGce|dG ~G2 BGBd|egfa gedB|
EAAG ABcd|ec ~c2 EGce|dG ~G2 BGBd|edBG A2||
AB||cA ~A2 cAFA|~G2 BG DGBG|cA ~A2 cAFA|GABG A2 AB|
cA ~A2 cAFA|~G2 BG DGBG|cA ~A2 cAFA|GABG A2||
Bd||eggf gedB|AG ~G2 AGEG|eggf gedB|AG (3EFG A2 Bd|
eggf gedB|AG ~G2 AGEG|ec ~c2 ecge|dBgB A2||

